X:716
T: STERBEN IST EIN HARTE BUSS
N: E2162
O: Europa, Mitteleuropa, Deutschland, Hessen, Battenberg, Nennertehausen
R: geistlich, Moral - Lied, Tod
M: 3/4
L: 1/16
K: F
F2G2 | A6F2(3F2G2A2 | A4G4
F2G2 | A6F2(3F2G2A2 | A4G4
F2G2 | A2c2c4(3B2c2d2 | c8(3f2e2d2 | c8
c2f2 | c6A2c2B2A2GB | A8z4

@@@ Tune index: 5400
